public/svg/Duo_Jolly.svg

<?xml version="1.0" encoding="UTF-8" standalone="no"?>
<svg
   viewBox="0 0 189 200"
   fill="none"
   version="1.1"
   id="svg25"
   width="100%"
   height="100%"
   xmlns="http://www.w3.org/2000/svg">
  <defs
     id="defs25" />
  <path
     fill-rule="evenodd"
     clip-rule="evenodd"
     d="m 46.9849,55.4729 c -4.4743,-13.2676 6.6425,-26.7082 20.6074,-25.6928 13.0221,0.9469 26.7116,1.2181 33.1817,-0.964 6.471,-2.1821 17.201,-10.6881 26.99,-19.32772 10.498,-9.265064 27.484,-5.30159 31.958,7.96602 l 12.231,36.2675 c 0.795,2.3598 1.435,4.7347 1.923,7.1133 0.065,0.177 0.129,0.3543 0.191,0.5319 2.605,14.3273 2.22,29.2249 -2.01,44.2949 l -3.259,9.118 C 158.001,144.986 124.762,160.72 94.557,149.923 67.4237,140.224 51.968,112.417 56.9308,84.9658 Z"
     fill="#58cc02"
     id="path1" />
  <path
     d="M 6.8528,97.6978 93.2461,120.9 c 4.6307,1.244 9.1069,-2.381 8.8399,-7.158 C 100.803,90.7878 84.6752,70.843 61.8502,64.7129 39.0253,58.5828 15.1808,67.7921 2.72417,87.0563 0.13156,91.0658 2.2221,96.4542 6.8528,97.6978 Z"
     fill="#58cc02"
     id="path2" />
  <path
     fill-rule="evenodd"
     clip-rule="evenodd"
     d="m 46.9861,55.4727 c -4.4743,-13.2676 6.6425,-26.7082 20.6074,-25.6928 13.0221,0.9469 26.7116,1.2181 33.1825,-0.964 6.47,-2.1821 17.2,-10.6881 26.989,-19.32773 10.498,-9.265057 27.484,-5.30158 31.958,7.96603 l 12.231,36.2675 c 0.796,2.3598 1.435,4.7347 1.924,7.1133 0.022,0.0612 0.044,0.1225 0.066,0.1838 4.234,20.3449 -0.939,41.3422 -5.194,53.8992 -10.849,30.115 -44.032,45.785 -74.1918,35.005 C 67.4249,140.224 51.9692,112.416 56.932,84.9656 Z"
     fill="#58cc02"
     id="path3" />
  <path
     d="m 103.055,116.234 14.729,-2.69 c 0.789,-0.144 1.482,0.485 1.368,1.242 -0.548,3.639 -3.526,6.626 -7.417,7.337 -3.891,0.711 -7.729,-1.032 -9.523,-4.243 -0.373,-0.668 0.054,-1.502 0.843,-1.646 z"
     fill="#8ee000"
     id="path4" />
  <path
     d="m 128.762,111.549 14.729,-2.691 c 0.789,-0.144 1.482,0.485 1.368,1.242 -0.548,3.639 -3.526,6.626 -7.417,7.337 -3.891,0.711 -7.729,-1.032 -9.523,-4.243 -0.373,-0.668 0.054,-1.501 0.843,-1.645 z"
     fill="#8ee000"
     id="path5" />
  <path
     d="m 118.176,126.324 14.729,-2.69 c 0.789,-0.145 1.482,0.484 1.368,1.242 -0.548,3.638 -3.526,6.626 -7.417,7.337 -3.891,0.71 -7.728,-1.032 -9.523,-4.243 -0.373,-0.669 0.054,-1.502 0.843,-1.646 z"
     fill="#8ee000"
     id="path6" />
  <path
     fill-rule="evenodd"
     clip-rule="evenodd"
     d="m 92.3565,44.0238 c 8.3115,4.2051 19.2265,0.5243 23.9985,-8.0931 4.772,-8.6174 11.322,36.9953 11.285,36.8849 -0.018,-0.0528 -3.708,1.1748 -11.07,3.6826 -1.974,0.6723 -5.528,1.8877 -10.663,3.6464 C 91.3323,53.2606 86.8155,41.2203 92.3565,44.0238 Z"
     fill="#89e219"
     id="path7" />
  <path
     d="m 125.554,14.7765 -10.432,24.2268 c -0.559,1.2985 0.308,2.7666 1.711,2.8993 6.745,0.6374 13.243,-3.1967 15.999,-9.5974 2.756,-6.4007 1.085,-13.7758 -4.001,-18.2661 -1.059,-0.9346 -2.718,-0.5612 -3.277,0.7374 z"
     fill="#8ee000"
     id="path8" />
  <path
     d="m 136.776,15.9316 -10.431,24.2268 c -0.559,1.2985 0.307,2.7666 1.711,2.8993 6.745,0.6375 13.243,-3.1967 15.999,-9.5974 2.756,-6.4007 1.084,-13.7758 -4.002,-18.2661 -1.058,-0.9345 -2.717,-0.5612 -3.277,0.7374 z"
     fill="#8ee000"
     id="path9" />
  <path
     d="m 72.4559,32.627 22.3246,12.7403 c 1.1966,0.6828 1.3768,2.328 0.356,3.249 -4.9049,4.4251 -12.2308,5.233 -18.1289,1.8671 -5.8981,-3.366 -8.9015,-10.0687 -7.5469,-16.5198 0.282,-1.3427 1.7986,-2.0195 2.9952,-1.3366 z"
     fill="#89e219"
     id="path10" />
  <path
     d="m 64.0661,40.4705 21.0014,11.9851 c 1.1257,0.6424 1.2953,2.1901 0.3349,3.0565 -4.6141,4.1628 -11.5058,4.9228 -17.0543,1.7564 -5.5485,-3.1665 -8.3739,-9.4719 -7.0996,-15.5407 0.2652,-1.2631 1.6919,-1.8997 2.8176,-1.2573 z"
     fill="#89e219"
     id="path11" />
  <path
     d="M 59.1493,73.0964 C 54.9376,60.6075 61.6476,47.0691 74.1364,42.8575 86.6252,38.6459 100.164,45.3559 104.375,57.8447 l 3.758,11.1426 C 112.344,81.4761 105.635,95.0145 93.1457,99.2262 80.6569,103.438 67.1185,96.7278 62.9069,84.239 Z"
     fill="#89e219"
     id="path12" />
  <path
     d="m 115.188,54.1975 c -4.211,-12.4888 2.499,-26.0272 14.987,-30.2388 12.489,-4.2116 26.028,2.4984 30.239,14.9872 l 3.758,11.1426 c 4.212,12.4888 -2.498,26.0272 -14.987,30.2388 -12.489,4.2116 -26.027,-2.4984 -30.239,-14.9872 z"
     fill="#89e219"
     id="path13" />
  <rect
     x="40.646011"
     y="72.601776"
     width="33.2024"
     height="42.5406"
     rx="16.6012"
     transform="rotate(-18.6357)"
     fill="#ffffff"
     id="rect13" />
  <rect
     x="98.400757"
     y="72.600418"
     width="33.2024"
     height="42.5406"
     rx="16.6012"
     transform="rotate(-18.6357)"
     fill="#ffffff"
     id="rect14" />
  <rect
     x="54.477345"
     y="81.939133"
     width="15.5636"
     height="23.864201"
     rx="7.7818098"
     transform="rotate(-18.6357)"
     fill="#4b4b4b"
     id="rect15" />
  <path
     fill-rule="evenodd"
     clip-rule="evenodd"
     d="m 126.128,54.1592 c 3.258,-1.0986 5.008,-4.6304 3.909,-7.8883 -0.359,-1.0658 -0.979,-1.9701 -1.764,-2.6663 0.633,-0.4662 1.347,-0.8437 2.132,-1.1083 4.072,-1.3734 8.487,0.8147 9.861,4.8871 l 2.652,7.8654 c 1.373,4.0724 -0.815,8.4871 -4.887,9.8605 -4.073,1.3733 -8.487,-0.8147 -9.861,-4.8871 l -2.044,-6.0624 c 10e-4,-2e-4 10e-4,-4e-4 0.002,-6e-4 z"
     fill="#4b4b4b"
     id="path15" />
  <circle
     cx="54.479294"
     cy="85.397903"
     r="6.22545"
     transform="rotate(-18.6357)"
     fill="#ffffff"
     id="circle15" />
  <rect
     x="77.997238"
     y="100.2698"
     width="16.255301"
     height="32.676899"
     rx="8.1276703"
     transform="rotate(-18.6357)"
     fill="#f49000"
     id="rect16" />
  <rect
     x="79.450325"
     y="102.20721"
     width="13.4601"
     height="26.4604"
     rx="6.7300501"
     transform="rotate(-18.6357)"
     fill="#b06800"
     id="rect17" />
  <path
     d="m 112.626,71.4871 c 0.626,-0.5639 2.566,-1.4698 4.261,-1.4368"
     stroke="#ffde00"
     stroke-width="3.45858"
     stroke-linecap="round"
     stroke-linejoin="round"
     id="path17" />
  <path
     d="m 127.616,72.2791 c 0.209,0.3241 0.086,0.7516 -0.252,0.9366 l -9.828,5.3754 -11.077,1.6742 c -0.381,0.0576 -0.738,-0.208 -0.768,-0.5924 -0.414,-5.3184 2.801,-10.442 8.087,-12.2245 5.286,-1.7824 10.947,0.3476 13.838,4.8307 z"
     fill="#ffc200"
     id="path18" />
  <path
     d="m 112.536,71.3026 c 0.626,-0.5639 2.566,-1.4698 4.261,-1.4368"
     stroke="#ffde00"
     stroke-width="3.45858"
     stroke-linecap="round"
     stroke-linejoin="round"
     id="path19" />
  <path
     fill-rule="evenodd"
     clip-rule="evenodd"
     d="m 81.7302,115.701 c 3.4797,-2.438 8.2766,-1.593 10.7142,1.887 l 6.8521,9.781 c 2.4375,3.48 1.5925,8.277 -1.887,10.714 -3.4797,2.438 -8.2766,1.593 -10.7141,-1.887 l -6.8521,-9.781 c -2.4376,-3.48 -1.5928,-8.277 1.8869,-10.714 z"
     fill="#f49000"
     id="path20" />
  <rect
     x="107.734"
     y="177.38699"
     width="18.3305"
     height="13.1426"
     rx="6.5713"
     fill="#f49000"
     id="rect20" />
  <rect
     x="116.56743"
     y="-176.24516"
     width="24.368601"
     height="15.8133"
     rx="7.9066401"
     transform="rotate(109.924)"
     fill="#f49000"
     id="rect21" />
  <path
     fill-rule="evenodd"
     clip-rule="evenodd"
     d="m 126.888,85.5088 0.116,0.346 c 1.188,3.5221 -0.704,7.3401 -4.226,8.5278 -3.522,1.1877 -7.34,-0.7046 -8.528,-4.2266 l -0.201,-0.5951 c 1.062,-2.6587 3.46,-4.7398 6.527,-5.2989 2.285,-0.4166 4.521,0.0883 6.312,1.2468 z"
     fill="#ffb8d1"
     id="path21" />
  <path
     d="m 69.9609,84.8817 30.0991,2.2795 c -0.496,6.5513 -6.2091,11.46 -12.7605,10.9639 L 80.9249,97.6423 C 74.3735,97.1462 69.4648,91.4331 69.9609,84.8817 Z"
     fill="#89e219"
     id="path22" />
  <path
     d="m 159.129,56.2654 -24.12,18.1495 c 3.359,4.4634 9.7,5.359 14.164,2.0004 l 7.955,-5.9867 c 4.464,-3.3587 5.36,-9.6998 2.001,-14.1632 z"
     fill="#89e219"
     id="path23" />
  <path
     d="m 127.506,104.919 11.598,-5.8052 17.523,-3.1942 3.221,8.0264 -5.898,23.574 -4.807,7.38 -23.539,3.94 -5.105,-1.003 -2.677,-4.082 0.6,-7.317 8.501,-13.151 z"
     fill="#58cc02"
     id="path24" />
  <path
     fill-rule="evenodd"
     clip-rule="evenodd"
     d="m 162.841,126.852 c -10.475,7.999 -24.556,11.537 -36.593,12.25 l -0.038,0.002 -0.038,0.003 c -2.121,0.205 -3.604,-0.121 -4.627,-0.627 -1.013,-0.501 -1.692,-1.238 -2.127,-2.069 -0.446,-0.85 -0.643,-1.815 -0.631,-2.71 0.012,-0.924 0.241,-1.605 0.456,-1.941 l 0.053,-0.082 0.045,-0.086 8.881,-17.172 c 0.527,-1.018 0.128,-2.27 -0.89,-2.796 -1.018,-0.527 -2.27,-0.129 -2.796,0.889 l -8.842,17.096 c -0.704,1.143 -1.039,2.601 -1.057,4.039 -0.019,1.505 0.304,3.163 1.105,4.69 0.81,1.546 2.104,2.942 3.962,3.862 1.842,0.911 4.118,1.297 6.827,1.042 9.015,-0.537 19.381,-2.607 28.735,-7.013 2.816,-2.822 5.36,-5.957 7.575,-9.377 z"
     fill="#43c000"
     id="path25" />
</svg>

<svg viewBox="0 0 189 200" fill="none" xmlns="http://www.w3.org/2000/svg"><rect opacity="0.3" x="76" y="190" width="71" height="10" rx="5" fill="#AFAFAF"/><path fill-rule="evenodd" clip-rule="evenodd" d="M46.9849 55.4729C42.5106 42.2053 53.6274 28.7647 67.5923 29.7801C80.6144 30.727 94.3039 30.9982 100.774 28.8161C107.245 26.634 117.975 18.128 127.764 9.48838C138.262 0.223316 155.248 4.18679 159.722 17.4544L171.953 53.7219C172.748 56.0817 173.388 58.4566 173.876 60.8352C173.941 61.0122 174.005 61.1895 174.067 61.3671C176.672 75.6944 176.287 90.592 172.057 105.662L168.798 114.78C158.001 144.986 124.762 160.72 94.557 149.923C67.4237 140.224 51.968 112.417 56.9308 84.9658L46.9849 55.4729Z" fill="#58CC02"/><path d="M6.8528 97.6978L93.2461 120.9C97.8768 122.144 102.353 118.519 102.086 113.742C100.803 90.7878 84.6752 70.843 61.8502 64.7129C39.0253 58.5828 15.1808 67.7921 2.72417 87.0563C0.13156 91.0658 2.2221 96.4542 6.8528 97.6978Z" fill="#58CC02"/><path fill-rule="evenodd" clip-rule="evenodd" d="M46.9861 55.4727C42.5118 42.2051 53.6286 28.7645 67.5935 29.7799C80.6156 30.7268 94.3051 30.998 100.776 28.8159C107.246 26.6338 117.976 18.1278 127.765 9.48817C138.263 0.223113 155.249 4.18659 159.723 17.4542L171.954 53.7217C172.75 56.0815 173.389 58.4564 173.878 60.835C173.9 60.8962 173.922 60.9575 173.944 61.0188C178.178 81.3637 173.005 102.361 168.75 114.918C157.901 145.033 124.718 160.703 94.5582 149.923C67.4249 140.224 51.9692 112.416 56.932 84.9656L46.9861 55.4727Z" fill="#58CC02"/><path d="M103.055 116.234L117.784 113.544C118.573 113.4 119.266 114.029 119.152 114.786C118.604 118.425 115.626 121.412 111.735 122.123C107.844 122.834 104.006 121.091 102.212 117.88C101.839 117.212 102.266 116.378 103.055 116.234Z" fill="#8EE000"/><path d="M128.762 111.549L143.491 108.858C144.28 108.714 144.973 109.343 144.859 110.1C144.311 113.739 141.333 116.726 137.442 117.437C133.551 118.148 129.713 116.405 127.919 113.194C127.546 112.526 127.973 111.693 128.762 111.549Z" fill="#8EE000"/><path d="M118.176 126.324L132.905 123.634C133.694 123.489 134.387 124.118 134.273 124.876C133.725 128.514 130.747 131.502 126.856 132.213C122.965 132.923 119.128 131.181 117.333 127.97C116.96 127.301 117.387 126.468 118.176 126.324Z" fill="#8EE000"/><path fill-rule="evenodd" clip-rule="evenodd" d="M92.3565 44.0238C100.668 48.2289 111.583 44.5481 116.355 35.9307C121.127 27.3133 127.677 72.926 127.64 72.8156C127.622 72.7628 123.932 73.9904 116.57 76.4982C114.596 77.1705 111.042 78.3859 105.907 80.1446C91.3323 53.2606 86.8155 41.2203 92.3565 44.0238Z" fill="#89E219"/><path d="M125.554 14.7765L115.122 39.0033C114.563 40.3018 115.43 41.7699 116.833 41.9026C123.578 42.54 130.076 38.7059 132.832 32.3052C135.588 25.9045 133.917 18.5294 128.831 14.0391C127.772 13.1045 126.113 13.4779 125.554 14.7765Z" fill="#8EE000"/><path d="M136.776 15.9316L126.345 40.1584C125.786 41.4569 126.652 42.925 128.056 43.0577C134.801 43.6952 141.299 39.861 144.055 33.4603C146.811 27.0596 145.139 19.6845 140.053 15.1942C138.995 14.2597 137.336 14.633 136.776 15.9316Z" fill="#8EE000"/><path d="M72.4559 32.627L94.7805 45.3673C95.9771 46.0501 96.1573 47.6953 95.1365 48.6163C90.2316 53.0414 82.9057 53.8493 77.0076 50.4834C71.1095 47.1174 68.1061 40.4147 69.4607 33.9636C69.7427 32.6209 71.2593 31.9441 72.4559 32.627Z" fill="#89E219"/><path d="M64.0661 40.4705L85.0675 52.4556C86.1932 53.098 86.3628 54.6457 85.4024 55.5121C80.7883 59.6749 73.8966 60.4349 68.3481 57.2685C62.7996 54.102 59.9742 47.7966 61.2485 41.7278C61.5137 40.4647 62.9404 39.8281 64.0661 40.4705Z" fill="#89E219"/><path d="M59.1493 73.0964C54.9376 60.6075 61.6476 47.0691 74.1364 42.8575C86.6252 38.6459 100.164 45.3559 104.375 57.8447L108.133 68.9873C112.344 81.4761 105.635 95.0145 93.1457 99.2262C80.6569 103.438 67.1185 96.7278 62.9069 84.239L59.1493 73.0964Z" fill="#89E219"/><path d="M115.188 54.1975C110.977 41.7087 117.687 28.1703 130.175 23.9587C142.664 19.7471 156.203 26.4571 160.414 38.9459L164.172 50.0885C168.384 62.5773 161.674 76.1157 149.185 80.3273C136.696 84.5389 123.158 77.8289 118.946 65.3401L115.188 54.1975Z" fill="#89E219"/><rect x="61.7148" y="55.8068" width="33.2024" height="42.5406" rx="16.6012" transform="rotate(-18.6357 61.7148 55.8068)" fill="white"/><rect x="116.441" y="37.35" width="33.2024" height="42.5406" rx="16.6012" transform="rotate(-18.6357 116.441 37.35)" fill="white"/><rect x="77.8047" y="60.2348" width="15.5636" height="23.8642" rx="7.78181" transform="rotate(-18.6357 77.8047 60.2348)" fill="#4B4B4B"/><path fill-rule="evenodd" clip-rule="evenodd" d="M126.128 54.1592C129.386 53.0606 131.136 49.5288 130.037 46.2709C129.678 45.2051 129.058 44.3008 128.273 43.6046C128.906 43.1384 129.62 42.7609 130.405 42.4963C134.477 41.1229 138.892 43.311 140.266 47.3834L142.918 55.2488C144.291 59.3212 142.103 63.7359 138.031 65.1093C133.958 66.4826 129.544 64.2946 128.17 60.2222L126.126 54.1598C126.127 54.1596 126.127 54.1594 126.128 54.1592Z" fill="#4B4B4B"/><circle cx="78.9118" cy="63.5116" r="6.22545" transform="rotate(-18.6357 78.9118 63.5116)" fill="white"/><rect x="105.949" y="70.0886" width="16.2553" height="32.6769" rx="8.12767" transform="rotate(-18.6357 105.949 70.0886)" fill="#F49000"/><rect x="107.945" y="71.4601" width="13.4601" height="26.4604" rx="6.73005" transform="rotate(-18.6357 107.945 71.4601)" fill="#B06800"/><path d="M112.626 71.4871C113.252 70.9232 115.192 70.0173 116.887 70.0503" stroke="#FFDE00" stroke-width="3.45858" stroke-linecap="round" stroke-linejoin="round"/><path d="M127.616 72.2791C127.825 72.6032 127.702 73.0307 127.364 73.2157L117.536 78.5911L106.459 80.2653C106.078 80.3229 105.721 80.0573 105.691 79.6729C105.277 74.3545 108.492 69.2309 113.778 67.4484C119.064 65.666 124.725 67.796 127.616 72.2791Z" fill="#FFC200"/><path d="M112.536 71.3026C113.162 70.7387 115.102 69.8328 116.797 69.8658" stroke="#FFDE00" stroke-width="3.45858" stroke-linecap="round" stroke-linejoin="round"/><path fill-rule="evenodd" clip-rule="evenodd" d="M81.7302 115.701C85.2099 113.263 90.0068 114.108 92.4444 117.588L99.2965 127.369C101.734 130.849 100.889 135.646 97.4095 138.083C93.9298 140.521 89.1329 139.676 86.6954 136.196L79.8433 126.415C77.4057 122.935 78.2505 118.138 81.7302 115.701Z" fill="#F49000"/><rect x="107.734" y="177.387" width="18.3305" height="13.1426" rx="6.5713" fill="#F49000"/><rect x="125.973" y="169.65" width="24.3686" height="15.8133" rx="7.90664" transform="rotate(109.924 125.973 169.65)" fill="#F49000"/><path fill-rule="evenodd" clip-rule="evenodd" d="M126.888 85.5088L127.004 85.8548C128.192 89.3769 126.3 93.1949 122.778 94.3826C119.256 95.5703 115.438 93.678 114.25 90.156L114.049 89.5609C115.111 86.9022 117.509 84.8211 120.576 84.262C122.861 83.8454 125.097 84.3503 126.888 85.5088Z" fill="#FFB8D1"/><path d="M69.9609 84.8817L100.06 87.1612C99.564 93.7125 93.8509 98.6212 87.2995 98.1251L80.9249 97.6423C74.3735 97.1462 69.4648 91.4331 69.9609 84.8817Z" fill="#89E219"/><path d="M159.129 56.2654L135.009 74.4149C138.368 78.8783 144.709 79.7739 149.173 76.4153L157.128 70.4286C161.592 67.0699 162.488 60.7288 159.129 56.2654Z" fill="#89E219"/><path d="M127.506 104.919L139.104 99.1138L156.627 95.9196L159.848 103.946L153.95 127.52L149.143 134.9L125.604 138.84L120.499 137.837L117.822 133.755L118.422 126.438L126.923 113.287L127.506 104.919Z" fill="#58CC02"/><path fill-rule="evenodd" clip-rule="evenodd" d="M162.841 126.852C152.366 134.851 138.285 138.389 126.248 139.102L126.21 139.104L126.172 139.107C124.051 139.312 122.568 138.986 121.545 138.48C120.532 137.979 119.853 137.242 119.418 136.411C118.972 135.561 118.775 134.596 118.787 133.701C118.799 132.777 119.028 132.096 119.243 131.76L119.296 131.678L119.341 131.592L128.222 114.42C128.749 113.402 128.35 112.15 127.332 111.624C126.314 111.097 125.062 111.495 124.536 112.513L115.694 129.609C114.99 130.752 114.655 132.21 114.637 133.648C114.618 135.153 114.941 136.811 115.742 138.338C116.552 139.884 117.846 141.28 119.704 142.2C121.546 143.111 123.822 143.497 126.531 143.242C135.546 142.705 145.912 140.635 155.266 136.229C158.082 133.407 160.626 130.272 162.841 126.852Z" fill="#43C000"/></svg>
